X:5803
T:Gan Ainm
R:Reel
C:
S:
H:
N:
D:R na G Broadcast
Z:Adrian Scahill
M:4/4
L:1/8
K:D
D3F ABdf|D3F EDB,A,|D3F ABdf|1 gbaf dBAF:|2 g2af dA (3Bcd||\
gafg efdf|gfed B2ef|gafg efdB|B2AF D2ef|\
g3f edBd|gfed Bdef|g2fg efdB|B2AF DEFE||


